Pods/ProtonCore-UIFoundations/libraries/UIFoundations/Sources/Assets.xcassets/Images/IconSet/ic-archive-box.imageset/ic-archive-box.svg

<svg width="24" height="24" viewBox="0 0 24 24" fill="none" xmlns="http://www.w3.org/2000/svg">
<path d="M8.25 12C8.25 11.5858 8.58579 11.25 9 11.25H15C15.4142 11.25 15.75 11.5858 15.75 12C15.75 12.4142 15.4142 12.75 15 12.75H9C8.58579 12.75 8.25 12.4142 8.25 12Z" fill="#0C0C14"/>
<path fill-rule="evenodd" clip-rule="evenodd" d="M3 9C2.17157 9 1.5 8.32843 1.5 7.5V4.5C1.5 3.67157 2.17157 3 3 3H21C21.8284 3 22.5 3.67157 22.5 4.5V7.5C22.5 8.32843 21.8284 9 21 9V19.5C21 21.1569 19.6569 22.5 18 22.5H6C4.34315 22.5 3 21.1569 3 19.5L3 9ZM3 4.5H21V7.5H3V4.5ZM4.5 9V19.5C4.5 20.3284 5.17157 21 6 21H18C18.8284 21 19.5 20.3284 19.5 19.5V9H4.5Z" fill="#0C0C14"/>
</svg>

<svg xmlns="http://www.w3.org/2000/svg" width="24" height="24" viewBox="0 0 24 24">
  <g class="ic-archive-box">
    <g class="Icon">
      <path d="M8.25 12a.75.75 0 0 1 .75-.75h6a.75.75 0 0 1 0 1.5H9a.75.75 0 0 1-.75-.75Z"/>
      <path fill-rule="evenodd" d="M3 9a1.5 1.5 0 0 1-1.5-1.5v-3A1.5 1.5 0 0 1 3 3h18a1.5 1.5 0 0 1 1.5 1.5v3A1.5 1.5 0 0 1 21 9v10.5a3 3 0 0 1-3 3H6a3 3 0 0 1-3-3V9Zm0-4.5h18v3H3v-3ZM4.5 9v10.5A1.5 1.5 0 0 0 6 21h12a1.5 1.5 0 0 0 1.5-1.5V9h-15Z"/>
    </g>
  </g>
</svg>
